packages/web-icons/svgs/coin_1.svg

<svg viewBox="0 0 76 48" xmlns="http://www.w3.org/2000/svg" class="ridi_icon"><path d="M75.1 9.4c0 5.3-9.3 9.4-20.7 9.4-11.4 0-20.6-4.1-20.6-9.4 0-5.3 9.3-9.4 20.7-9.4 11.4 0 20.6 4.2 20.6 9.4zM42.2 24c0 5.3-9.3 9.4-20.7 9.4C10.1 33.4.9 29.2.9 24s9.3-9.4 20.7-9.4c11.4 0 20.6 4.1 20.6 9.4zm-4.1 9c-3.7 2.3-9.8 3.9-16.6 3.9-6.8 0-12.8-1.6-16.5-3.9C2.4 34.5.8 36.4.8 38.6c0 5.3 9.3 9.4 20.7 9.4 11.4 0 20.7-4.3 20.7-9.4 0-2.2-1.6-4.1-4.1-5.6zm32.7-14.9c-3.7 2.2-9.8 3.7-16.3 3.7-3.6 0-7-.5-9.9-1.2.9 1.1 1.4 2.2 1.4 3.4 0 2.6-2.3 5-6 6.7 3.7 1.7 9 2.8 14.7 2.8 11.1 0 20.4-4.2 20.4-9.4 0-2.3-1.7-4.3-4.3-6zm.2 14.7c-3.7 2.3-9.8 3.9-16.6 3.9-3.6 0-6.8-.5-9.6-1.1.6.9 1.1 2 1.1 2.9 0 2.6-2.3 5-6 6.7 3.7 1.7 9 2.8 14.7 2.8 11.5 0 20.7-4.3 20.7-9.4-.2-2.2-1.7-4.1-4.3-5.8z"/></svg>

<?xml version="1.0" encoding="UTF-8"?>
<svg width="76px" height="48px" viewBox="0 0 76 48" version="1.1" xmlns="http://www.w3.org/2000/svg">
  <!-- Generator: Sketch 41.2 (35397) - http://www.bohemiancoding.com/sketch -->
  <title>coin_1</title>
  <desc>Created with Sketch.</desc>
  <defs></defs>
  <g id="Page-1" stroke="none" stroke-width="1" fill="none" fill-rule="evenodd">
    <g id="coin_1" fill="#000000">
      <g id="레이어_1">
        <path d="M75.1,9.4 C75.1,14.7 65.8,18.8 54.4,18.8 C43,18.8 33.8,14.7 33.8,9.4 C33.8,4.1 43.1,0 54.5,0 C65.9,0 75.1,4.2 75.1,9.4 Z M42.2,24 C42.2,29.3 32.9,33.4 21.5,33.4 C10.1,33.4 0.9,29.2 0.9,24 C0.9,18.8 10.2,14.6 21.6,14.6 C33,14.6 42.2,18.7 42.2,24 Z M38.1,33 C34.4,35.3 28.3,36.9 21.5,36.9 C14.7,36.9 8.7,35.3 5,33 C2.4,34.5 0.8,36.4 0.8,38.6 C0.8,43.9 10.1,48 21.5,48 C32.9,48 42.2,43.7 42.2,38.6 C42.2,36.4 40.6,34.5 38.1,33 L38.1,33 Z M70.8,18.1 C67.1,20.3 61,21.8 54.5,21.8 C50.9,21.8 47.5,21.3 44.6,20.6 C45.5,21.7 46,22.8 46,24 C46,26.6 43.7,29 40,30.7 C43.7,32.4 49,33.5 54.7,33.5 C65.8,33.5 75.1,29.3 75.1,24.1 C75.1,21.8 73.4,19.8 70.8,18.1 Z M71,32.8 C67.3,35.1 61.2,36.7 54.4,36.7 C50.8,36.7 47.6,36.2 44.8,35.6 C45.4,36.5 45.9,37.6 45.9,38.5 C45.9,41.1 43.6,43.5 39.9,45.2 C43.6,46.9 48.9,48 54.6,48 C66.1,48 75.3,43.7 75.3,38.6 C75.1,36.4 73.6,34.5 71,32.8 L71,32.8 Z" id="Shape"></path>
      </g>
    </g>
  </g>
</svg>
